/* XPM */
static char *_b6c0233ae144f5ed7221a9640e62672d2au504pzD4OGOAB[] = {
/* columns rows colors chars-per-pixel */
"32 32 110 2 ",
"   c None",
".  c black",
"X  c #010101",
"o  c #020202",
"O  c #040404",
"+  c gray2",
"@  c #060606",
"#  c #090909",
"$  c #0C0C0C",
"%  c gray5",
"&  c #0E0E0E",
"*  c gray8",
"=  c #161616",
"-  c #181818",
";  c #191919",
":  c #1D1D1D",
">  c #1E1E1E",
",  c gray12",
"<  c #202020",
"1  c #232323",
"2  c #252525",
"3  c #2A2A2A",
"4  c gray17",
"5  c #2C2C2C",
"6  c gray19",
"7  c #313131",
"8  c #343434",
"9  c #3C3C3C",
"0  c gray24",
"q  c gray25",
"w  c #434343",
"e  c gray27",
"r  c gray28",
"t  c #535353",
"y  c gray34",
"u  c #585858",
"i  c #5A5A5A",
"p  c #5F5F5F",
"a  c #606060",
"s  c #646464",
"d  c #6C6C6C",
"f  c #6F6F6F",
"g  c gray44",
"h  c gray45",
"j  c gray46",
"k  c #7B7B7B",
"l  c #7C7C7C",
"z  c gray49",
"x  c gray50",
"c  c #808080",
"v  c gray51",
"b  c gray53",
"n  c #888888",
"m  c #8B8B8B",
"M  c gray57",
"N  c #929292",
"B  c gray58",
"V  c #959595",
"C  c gray59",
"Z  c #989898",
"A  c gray60",
"S  c #9A9A9A",
"D  c gray61",
"F  c gray62",
"G  c #9F9F9F",
"H  c gray63",
"J  c gray64",
"K  c #A7A7A7",
"L  c gray66",
"P  c #AAAAAA",
"I  c gray67",
"U  c gray69",
"Y  c gray70",
"T  c #B4B4B4",
"R  c #BBBBBB",
"E  c gray74",
"W  c gray",
"Q  c gray75",
"!  c #C1C1C1",
"~  c gray76",
"^  c #C6C6C6",
"/  c #CBCBCB",
"(  c #CDCDCD",
")  c #D5D5D5",
"_  c #D7D7D7",
"`  c #D8D8D8",
"'  c #DADADA",
"]  c gray86",
"[  c gainsboro",
"{  c #DDDDDD",
"}  c #DFDFDF",
"|  c gray88",
" . c #E1E1E1",
".. c #E4E4E4",
"X. c gray90",
"o. c #E6E6E6",
"O. c #E7E7E7",
"+. c #E9E9E9",
"@. c gray92",
"#. c gray93",
"$. c #EEEEEE",
"%. c #EFEFEF",
"&. c #F1F1F1",
"*. c gray95",
"=. c #F4F4F4",
"-. c gray96",
";. c #FBFBFB",
":. c gray99",
">. c #FDFDFD",
",. c white",
/* pixels */
"                                                                ",
"                      . . . . . . . . . .                       ",
"                  . . . . . . . . . . . . . .                   ",
"              . . . . . . . . . . . . . . . . . .               ",
"            . . . . . . . . . . . . . . . . . . . .             ",
"          . . . . . . . . . . : : . . . . . . . . . .           ",
"        . . . . . . . . % w C ] } Z e % . . . . . . . .         ",
"      . . . . . . . 1 d Q =.,.,.,.,.=.~ d 2 . . . . . . .       ",
"      . . . . % e Z } ,.,.,.,.,.,.,.,.,.,.| Z e % . . . .       ",
"    . . . . 0 Q =.,.,.,.,.,.,.,.,.,.,.,.,.,.,.=.Q w . . . .     ",
"    . . . = / ,.,.,.,.,.,.,.,.,.,.,.,.,.,.,.,.,.,.( ; . . .     ",
"  . . . . 7 %.,.,.,.,.^ k z z c z c M R &.,.,.,.,.&.8 . . . .   ",
"  . . . . 5 @.,.,.,.,.C . . . . . . . # y @.,.,.,.%.7 . . . .   ",
"  . . . . : } ,.,.,.,.D . . % 1 1 : # . . M ,.,.,.| 1 . . . .   ",
"  . . . . % ~ ,.,.,.,.J . . u O.O.O.C @ . p ,.,.,.^ % . . . .   ",
"  . . . . . C ,.,.,.,.J . . t ] ] ) b @ . s ,.,.,.Z . . . . .   ",
"  . . . . . y ;.,.,.,.J . . # ; ; = @ . . D ,.,.,.u . . . . .   ",
"  . . . . . : ] ,.,.,.J . . . . . . @ ; g &.,.,.] : . . . . .   ",
"  . . . . . . n ,.,.,.D . . 0 D D J Y ) ;.,.,.,.n . . . . . .   ",
"  . . . . . . 3 | ,.,.C . . a ,.,.,.,.,.,.,.,.| 3 . . . . . .   ",
"  . . . . . . . g ,.,.~ g d K ,.,.,.,.,.,.,.,.j . . . . . . .   ",
"    . . . . . . % P ,.,.,.,.,.,.,.,.,.,.,.,.P % . . . . . .     ",
"    . . . . . . . : Q ,.,.,.,.,.,.,.,.,.,.Q 1 . . . . . . .     ",
"      . . . . . . . 1 Y ,.,.,.,.,.,.,.,.T 1 . . . . . . .       ",
"      . . . . . . . . = n %.,.,.,.,.%.n = . . . . . . . .       ",
"        . . . . . . . . . w K O.O.P w . . . . . . . . .         ",
"          . . . . . . . . . @ 2 2 @ . . . . . . . . .           ",
"            . . . . . . . . . . . . . . . . . . . .             ",
"              . . . . . . . . . . . . . . . . . .               ",
"                  . . . . . . . . . . . . . .                   ",
"                      . . . . . . . . . .                       ",
"                                                                "
};
